X: 70
T: THE LITTLE BLACK ROSE
B: O'Neill's 70
M: 3/4
L: 1/8
Z: Transcribed by John Chambers <jc@trillian.mit.edu>
N: "Tenderly"
N: 1st Setting.
K:Cm
G=A \
| (B2 G2) e>c | (d>c) (BG) (FD) | D2 C2 C2 | C4 (cd) |
| e2 e2 dc | e2 (dc) (BG) | c3 B GF | G4 (cd) |
|| e2 (ef) (dc) | e2 (dc) (BG) | c3 B GF | D4 (G=A) |
| B2 c>d ec | d>c BG FD | C4 C2 | C4 ||


